X:101
T:Owl Creek
M:6/8
Q:1/8=300
K:D
%%MIDI channel 1
%%MIDI program 72
%%MIDI transpose 8
%%MIDI grace 1/8
%%MIDI ratio 3 1
(3(A/B/c/)|def edB|(3(A/B/c/) d F E2F|DFA {B}A^GA|B<ed e=dB|{ABc}def edB|
(3(A/B/c/) d F E2F|DFA {B}A^GA|B<ec d2::e|fdf afd|gfg bag|
fdf afd|cde e2A|fdf afd|gfg bag|faf ede|fdd d2:|
